X:103 
T:John O'Dwyer of the Glen (set dance) 
B:CRE 3.060 (Sean O Duibhir an Ghleanna) 
F:file ID: cre.3/103john_od
N:Note 6 measure/12 measure structure. I'm not sure the B part
should be repeated but this is the way CRE has it.
L:1/8
Q:120
M:4/4
R:hornpipe % set dance
K:G
"D modal"
de|fd (3efg afge|fdec d3e|(3fed (3cAG A2AB|cBcd ed (3cAG|
AdcA G2 G2 |1 A2AB AB:|2 A2AA A3||
|:B|cBAB cdef|gfge a3z|agef g2ag|f2fg (3agf (3gfe|
fdec dedc|(3fed ec d3e|(3fed (3cAG A2-AB|cBcd ed (3cAG|
AdcA G2G2|A2AA A3:|

%%%

